X: 10043
M: 6/8
L: 1/8
K: C
c2e f2a | g2a gec | c2e f2a | gec d3 |
c2e f2a | g2a gec | cBA GAB | cde {e}d2c ::\
f2d {e}dcd | e2c {d}cBc | dBG GAB | cdB cde |\
f2d {e}dcd | e2c {d}cBc | dBG GAB | cde {e}d2c :|


